src/icons/svg/Gear.svg

<svg width="24" height="24" viewBox="0 0 24 24" fill="none" xmlns="http://www.w3.org/2000/svg">
<g clip-path="url(#clip0)">
<path d="M24 12C24 10.425 22.78 9.149 21.237 9.025C21.074 8.511 20.871 8.02 20.625 7.547C21.615 6.368 21.594 4.625 20.484 3.515C19.377 2.407 17.634 2.384 16.455 3.374C15.981 3.13 15.489 2.927 14.976 2.762C14.85 1.218 13.577 0 12 0C10.425 0 9.14898 1.218 9.02398 2.762C8.50898 2.927 8.01698 3.129 7.54498 3.374C6.36598 2.384 4.62298 2.405 3.51498 3.515C2.40698 4.625 2.38398 6.367 3.37398 7.545C3.12998 8.019 2.92798 8.509 2.76198 9.024C1.21898 9.147 0.000976562 10.423 0.000976562 11.998C0.000976562 13.575 1.21898 14.85 2.76198 14.974C2.92898 15.488 3.12998 15.98 3.37598 16.453C2.38398 17.631 2.40698 19.373 3.51498 20.483C4.62498 21.591 6.36698 21.614 7.54498 20.624C8.01798 20.868 8.50898 21.071 9.02398 21.236C9.14698 22.781 10.425 23.999 12 23.999C13.576 23.999 14.853 22.779 14.976 21.236C15.489 21.071 15.981 20.869 16.455 20.624C17.632 21.614 19.376 21.593 20.484 20.483C21.594 19.374 21.615 17.631 20.625 16.453C20.871 15.98 21.073 15.487 21.237 14.974C22.782 14.85 24 13.575 24 11.998V12ZM20.112 13.502C19.897 14.661 19.426 15.726 18.781 16.661L19.423 17.304C20.009 17.891 20.009 18.839 19.423 19.425C18.837 20.011 17.888 20.012 17.302 19.425L16.654 18.777C15.72 19.419 14.656 19.887 13.5 20.099V21.001C13.5 21.831 12.83 22.503 12 22.503C11.17 22.503 10.5 21.831 10.5 21.001V20.1C9.34198 19.887 8.27898 19.421 7.34398 18.778L6.69798 19.426C6.11098 20.013 5.16198 20.013 4.57698 19.426C3.98998 18.84 3.98998 17.892 4.57698 17.305L5.21998 16.662C4.57398 15.728 4.10398 14.662 3.88998 13.503H3.00098C2.17298 13.503 1.50098 12.831 1.50098 12.002C1.50098 11.174 2.17298 10.504 3.00098 10.504H3.88898C4.10398 9.343 4.57498 8.278 5.21998 7.343L4.57598 6.699C3.98898 6.112 3.98898 5.165 4.57598 4.578C5.16098 3.991 6.11098 3.991 6.69698 4.578L7.34498 5.224C8.27898 4.584 9.34298 4.116 10.501 3.904V3.003C10.501 2.174 11.173 1.503 12.001 1.503C12.829 1.503 13.501 2.174 13.501 3.003V3.904C14.659 4.117 15.722 4.585 16.657 5.226L17.305 4.578C17.892 3.991 18.84 3.991 19.426 4.578C20.012 5.165 20.013 6.113 19.426 6.699L18.784 7.343C19.429 8.277 19.9 9.342 20.115 10.503H21.001C21.831 10.503 22.501 11.174 22.501 12.002C22.501 12.832 21.831 13.503 21.001 13.503H20.113L20.112 13.502ZM12 7.502C9.51398 7.502 7.49998 9.516 7.49998 12C7.49998 14.486 9.51398 16.502 12 16.502C14.484 16.502 16.5 14.486 16.5 12C16.5 9.516 14.484 7.501 12 7.501V7.502ZM12 15C10.344 15 8.99998 13.658 8.99998 12C8.99998 10.344 10.344 9.002 12 9.002C13.656 9.002 15 10.346 15 12C15 13.659 13.656 15 12 15Z" fill="#1C2125"/>
</g>
<defs>
<clipPath id="clip0">
<rect width="24" height="24" fill="white"/>
</clipPath>
</defs>
</svg>

<!-- Generated by IcoMoon.io -->
<svg version="1.1" xmlns="http://www.w3.org/2000/svg" width="24" height="24" viewBox="0 0 24 24">
<title>gear</title>
<path fill="#444" d="M24 12c0-1.575-1.22-2.851-2.763-2.975-0.163-0.514-0.366-1.005-0.612-1.478 0.99-1.179 0.969-2.922-0.141-4.032-1.107-1.108-2.85-1.131-4.029-0.141-0.474-0.244-0.966-0.447-1.479-0.612-0.126-1.544-1.399-2.762-2.976-2.762-1.575 0-2.851 1.218-2.976 2.762-0.515 0.165-1.007 0.367-1.479 0.612-1.179-0.99-2.922-0.969-4.030 0.141s-1.131 2.852-0.141 4.030c-0.244 0.474-0.446 0.964-0.612 1.479-1.543 0.123-2.761 1.399-2.761 2.974 0 1.577 1.218 2.852 2.761 2.976 0.167 0.514 0.368 1.006 0.614 1.479-0.992 1.178-0.969 2.92 0.139 4.030 1.11 1.108 2.852 1.131 4.030 0.141 0.473 0.244 0.964 0.447 1.479 0.612 0.123 1.545 1.401 2.763 2.976 2.763 1.576 0 2.853-1.22 2.976-2.763 0.513-0.165 1.005-0.367 1.479-0.612 1.177 0.99 2.921 0.969 4.029-0.141 1.11-1.109 1.131-2.852 0.141-4.030 0.246-0.473 0.448-0.966 0.612-1.479 1.545-0.124 2.763-1.399 2.763-2.976zM20.112 13.502c-0.215 1.159-0.686 2.224-1.331 3.159l0.642 0.643c0.586 0.587 0.586 1.535 0 2.121s-1.535 0.587-2.121 0l-0.648-0.648c-0.934 0.642-1.998 1.11-3.154 1.322v0.902c0 0.83-0.67 1.502-1.5 1.502s-1.5-0.672-1.5-1.502v-0.901c-1.158-0.213-2.221-0.679-3.156-1.322l-0.646 0.648c-0.587 0.587-1.536 0.587-2.121 0-0.587-0.586-0.587-1.534 0-2.121l0.643-0.643c-0.646-0.934-1.116-2-1.33-3.159h-0.889c-0.828 0-1.5-0.672-1.5-1.501 0-0.828 0.672-1.498 1.5-1.498h0.888c0.215-1.161 0.686-2.226 1.331-3.161l-0.644-0.644c-0.587-0.587-0.587-1.534 0-2.121 0.585-0.587 1.535-0.587 2.121 0l0.648 0.646c0.934-0.64 1.998-1.108 3.156-1.32v-0.901c0-0.829 0.672-1.5 1.5-1.5s1.5 0.671 1.5 1.5v0.901c1.158 0.213 2.221 0.681 3.156 1.322l0.648-0.648c0.587-0.587 1.535-0.587 2.121 0s0.587 1.535 0 2.121l-0.642 0.644c0.645 0.934 1.116 1.999 1.331 3.16h0.886c0.83 0 1.5 0.671 1.5 1.499 0 0.83-0.67 1.501-1.5 1.501h-0.888zM12 7.502c-2.486 0-4.5 2.014-4.5 4.498 0 2.486 2.014 4.502 4.5 4.502 2.484 0 4.5-2.016 4.5-4.502 0-2.484-2.016-4.499-4.5-4.499zM12 15c-1.656 0-3-1.342-3-3 0-1.656 1.344-2.998 3-2.998s3 1.344 3 2.998c0 1.659-1.344 3-3 3z"></path>
</svg>
